X:215
T: FRISCH AUF SOLDATENBLUT
N: E1354A
O: Europa, Mitteleuropa, Deutschland, Sachsen
R: Staende -, Soldaten -, Kriegs - Lied
M: 4/4
L: 1/16
K: Bb
 | B8A4G4 | F4F3ED8 |
F4d4d4d4 | c4c4B2F2D2F2 |
B8A4G4 | F4F3ED8 |
F4d4d4d4 | c4c4B4z2
B2 | B4d4f4d4 | d4c4c4
d4 | c4B4B4c4 | B4A4A4z4 |
G8B4G4 | F3GF3ED8 |
F4d4d4d4 | c4c4B8

@@@ Tune index: 4899
